src/icons/brand/glyph/DribbbleIcon.svg

<svg width="24" height="24" viewBox="0 0 24 24" fill="none" xmlns="http://www.w3.org/2000/svg">
<path d="M12 22C6.4875 22 2 17.5125 2 12C2 6.4875 6.4875 2 12 2C17.5125 2 22 6.4875 22 12C22 17.5125 17.5125 22 12 22ZM20.4333 13.3683C20.1417 13.2767 17.7917 12.5742 15.1133 13.0033C16.23 16.0733 16.6858 18.5733 16.7733 19.0933C18.69 17.7975 20.0533 15.7433 20.4333 13.3683ZM15.3375 19.875C15.21 19.125 14.7125 16.515 13.5125 13.4L13.4575 13.4167C8.6325 15.0958 6.9075 18.4375 6.7575 18.75C8.19916 19.8817 10.0242 20.555 11.9992 20.555C13.1825 20.555 14.3075 20.3133 15.3375 19.875ZM5.65416 17.725C5.8475 17.3917 8.19166 13.5125 12.5975 12.0875C12.71 12.05 12.8225 12.0175 12.935 11.9875C12.7183 11.5 12.485 11.015 12.2417 10.5375C7.975 11.8125 3.83832 11.7583 3.46332 11.75L3.45998 12.01C3.45998 14.2042 4.29164 16.2075 5.65414 17.725H5.65416ZM3.6375 10.2625C4.02084 10.2692 7.54 10.2842 11.535 9.2225C10.12 6.7075 8.59334 4.59084 8.36834 4.2825C5.97834 5.4075 4.19334 7.6075 3.6375 10.2625ZM10 3.71C10.235 4.02666 11.7875 6.13834 13.185 8.71C16.2225 7.5725 17.51 5.84334 17.6625 5.625C16.1542 4.28334 14.1708 3.47 12 3.47C11.3125 3.47 10.6417 3.55334 10 3.71ZM18.6125 6.6125C18.4308 6.85416 17 8.69 13.8425 9.97916C14.0425 10.3875 14.2342 10.8 14.4092 11.2175C14.4758 11.3675 14.5342 11.5175 14.5925 11.6592C17.4342 11.3008 20.2592 11.8758 20.5425 11.9342C20.5258 9.9175 19.8092 8.0675 18.6125 6.6125Z" fill="currentColor"/>
</svg>

<svg xmlns="http://www.w3.org/2000/svg" width="24" height="24" fill="currentColor" viewBox="0 0 24 24">
  <path d="M12 22C6.487 22 2 17.512 2 12 2 6.487 6.487 2 12 2c5.512 0 10 4.487 10 10 0 5.512-4.488 10-10 10Zm8.433-8.632c-.291-.091-2.641-.794-5.32-.365 1.117 3.07 1.573 5.57 1.66 6.09a8.555 8.555 0 0 0 3.66-5.725Zm-5.095 6.507c-.128-.75-.625-3.36-1.825-6.475l-.056.017c-4.825 1.679-6.55 5.02-6.7 5.333A8.468 8.468 0 0 0 12 20.555a8.494 8.494 0 0 0 3.338-.68Zm-9.684-2.15c.194-.333 2.538-4.213 6.944-5.638a5.89 5.89 0 0 1 .337-.1c-.217-.487-.45-.972-.693-1.45-4.267 1.275-8.404 1.221-8.779 1.213l-.003.26a8.53 8.53 0 0 0 2.194 5.715Zm-2.016-7.463c.383.007 3.902.022 7.897-1.04a54.563 54.563 0 0 0-3.167-4.94 8.564 8.564 0 0 0-4.73 5.98ZM10 3.71a45.577 45.577 0 0 1 3.185 5c3.037-1.138 4.325-2.867 4.478-3.085A8.491 8.491 0 0 0 10 3.71Zm8.613 2.902C18.43 6.854 17 8.69 13.843 9.98c.2.409.391.821.566 1.239.067.15.125.3.183.441 2.842-.358 5.667.217 5.95.275a8.453 8.453 0 0 0-1.93-5.321Z"/>
</svg>
